X: 4
T: Munster Jig
P: piffero primo a0844
O: Petrie collection
R: jig, march
F: http://ancients.sudburymuster.org/mus/ssp/pdf/stkildaF.pdf
Z: 2019 John Chambers <jc:trillian.mit.edu>
M: 6/8
L: 1/8
K: Edor
z |:\
EBE BEB | BAF d3 | EBE BEB | (BA)G (FE)D |\
EBE BEB | BAF d2e | fed (dc)B | ABG (FE)D :|
|:\
E2e eBf | gBf e3 | B2e eBf | (gf)e fdB |\
(AF)A dAe | fec (dc)B | AFA dcB |1 ABG (FE)D :|2 AFD E2 |]

%%center (drum solo)
%%center (fife solo)


